X:640
T:Miss Heron
R:Reel
C:Nathaniel Gow
B:The Athole Collection
M:C|
L:1/8
K:F
f|cFAF EGGB|A/B/c fc d3f|dfdA BGEc|AFEC F2F:|
f|a/g/f/e/ fd efgb|afcA d3f|cAfF EGGB|AFEC F3f|
a/g/f/e/ fd efgb|a/g/f/e/ fc d3f|cacA BGEc|AFEC ~F2F||

